src/24/actions/xml-element-new.svg

<svg xmlns="http://www.w3.org/2000/svg" viewBox="0 0 24 24">
  <defs id="defs3051">
    <style type="text/css" id="current-color-scheme">
      .ColorScheme-Text {
        color:#5d656b;
      }
      </style>
  </defs>
 <path style="fill:currentColor;fill-opacity:1;stroke:none" 
     d="M 13.5 4 L 9.5 19.753906 L 10.5 20 L 14.5 4.2460938 L 13.5 4 z M 8.2539062 7 L 4.2792969 11.644531 L 4 12 L 4.2792969 12.355469 L 8.2539062 17 L 9 16.291016 L 5.3359375 12 L 9 7.7089844 L 8.2539062 7 z M 15.746094 7 L 15 7.7089844 L 18.664062 12 L 16.957031 14 L 18.3125 14 L 19.720703 12.355469 L 20 12 L 19.720703 11.644531 L 15.746094 7 z M 17 15 L 17 17 L 15 17 L 15 18 L 17 18 L 17 20 L 18 20 L 18 18 L 20 18 L 20 17 L 18 17 L 18 15 L 17 15 z "
     class="ColorScheme-Text"
     />
</svg>

<svg xmlns="http://www.w3.org/2000/svg" viewBox="0 0 24 24"><path d="M13.5 4l-4 15.754 1 .246 4-15.754-1-.246zM8.254 7l-3.975 4.645L4 12l.28.355L8.253 17 9 16.291 5.336 12 9 7.709 8.254 7zm7.492 0L15 7.709 18.664 12l-1.707 2h1.355l1.409-1.645L20 12l-.28-.355L15.747 7zM17 15v2h-2v1h2v2h1v-2h2v-1h-2v-2h-1z" fill="currentColor" color="#5d656b"/></svg>
